X: 40722
T: Toss The Feathers
R: reel
M: 4/4
K: Dmixolydian
D2 D2 AD D2|ABcA GE E2|D2 D2 AD D2|defd cAGE|
D2 D2 AD D2|ABcA GE E2|cABG A2 (3ABc|1 d2 ed cAGE:|2 d2 ed cAGc||
|:Ad d2 Ad d2|Ad d2 ed^cd|eaag a3g|eaag ed (3B^cd|
efge afge|f3e dcAB|cABG A2 (3AB^c|1 d2 ed cAGc:|2 d2 ed cAGE||

